src/main/resources/icons/DatabaseIcons/icons/driverRed4.svg

<svg xmlns="http://www.w3.org/2000/svg" width="16" height="16" viewBox="0 0 16 16"><rect id="frame" width="16" height="16" fill="none"/><g fill="#F26522" fill-opacity=".7" fill-rule="evenodd"><path d="M9 9h4v2H9v4H7v-4H3V9h4V7h2v2z"/><path d="M1 11h2v4H1z"/><path d="M13 11h2v4h-2z"/><path d="M13 6h2v3h-2z"/><path d="M1 6h2v3H1z"/><path d="M9 4h2V1h2v5H3V1h2v3h2V1h2v3z"/></g></svg>

<svg xmlns="http://www.w3.org/2000/svg" width="16" height="16" viewBox="0 0 16 16">
  <g fill="none" fill-opacity=".7" fill-rule="evenodd">
    <path fill="#F26522" d="M9,9 L13,9 L13,11 L9,11 L9,15 L7,15 L7,11 L3,11 L3,9 L7,9 L7,7 L9,7 L9,9 Z"/>
    <rect width="2" height="4" x="1" y="11" fill="#F26522"/>
    <rect width="2" height="4" x="13" y="11" fill="#F26522"/>
    <rect width="2" height="3" x="13" y="6" fill="#F26522"/>
    <rect width="2" height="3" x="1" y="6" fill="#F26522"/>
    <path fill="#F26522" d="M9,4 L11,4 L11,1 L13,1 L13,6 L11,6 L5,6 L3,6 L3,1 L5,1 L5,4 L7,4 L7,1 L9,1 L9,4 Z"/>
  </g>
</svg>
